build/logo/GitLabSolid.svg

<svg xmlns="http://www.w3.org/2000/svg" fill="none" viewBox="0 0 24 24" focusable="false"><path d="M0 0H24V24H0z"/><path fill="#74767B" fill-rule="evenodd" d="M14.3369 19.9131C14.1592 20.0628 13.9707 20.1934 13.7725 20.3048C13.5996 20.4015 13.4189 20.4837 13.2305 20.5516C13.041 20.6198 12.8486 20.6716 12.6533 20.7071C12.4414 20.7455 12.2266 20.7648 12.0078 20.7649C11.7891 20.765 11.5742 20.7459 11.3623 20.7077C11.167 20.6724 10.9746 20.6208 10.7852 20.5528C10.5957 20.4851 10.416 20.403 10.2432 20.3066C10.0439 20.1953 9.85547 20.0649 9.67773 19.9153L9.18262 19.4987C9.03516 19.3739 9.04199 19.1436 9.19727 19.0283L11.8232 17.08C11.9297 17.0012 12.0742 17.0012 12.1807 17.08L14.8105 19.0311C14.9658 19.1464 14.9727 19.3765 14.8252 19.5013L14.3369 19.9131ZM15.9453 18.2541L13.418 16.3788C13.2559 16.2589 13.2559 16.0169 13.418 15.897L20.0127 11.0034C20.1084 10.9325 20.2451 10.9748 20.2842 11.0873C20.3672 11.3278 20.4297 11.5718 20.4707 11.8194C20.5127 12.0669 20.5332 12.3178 20.5332 12.5723C20.5332 12.9072 20.498 13.2344 20.4277 13.5537C20.3574 13.873 20.251 14.1845 20.1103 14.4883C19.9688 14.792 19.7988 15.0738 19.6006 15.3336C19.4023 15.5934 19.1748 15.8314 18.9189 16.0474L16.3174 18.2425C16.2109 18.3322 16.0566 18.337 15.9453 18.2541ZM19.584 9.70291L12.1807 15.1959C12.0742 15.2747 11.9297 15.2747 11.8232 15.1959L4.42969 9.71011C4.32422 9.63168 4.28223 9.49353 4.32617 9.36942L5.81543 5.14435C5.85352 5.03494 5.90723 4.93814 5.97656 4.85397C6.03613 4.78186 6.10644 4.71896 6.18848 4.66534C6.26074 4.61758 6.33691 4.58081 6.41699 4.55508C6.50977 4.52713 6.62207 4.50894 6.72363 4.51025C6.82617 4.5116 6.92383 4.52789 7.0166 4.55911C7.0957 4.58688 7.18262 4.6297 7.25391 4.67923C7.33496 4.73495 7.40332 4.79965 7.46094 4.87329C7.52832 4.95926 7.5791 5.05743 7.61523 5.16782L8.87012 8.99316C8.89844 9.0155 8.9873 9.11496 9.01855 9.13593C9.03809 9.13934 9.14551 9.17981 9.16699 9.17981L14.8145 9.17981C14.8418 9.17981 14.9229 9.14948 14.9756 9.12949C14.998 9.10074 15.0977 9.01266 15.1182 8.98154L16.4307 5.14536C16.4678 5.03592 16.5205 4.93878 16.5879 4.85394C16.6465 4.78122 16.7158 4.71753 16.7969 4.66287C16.8721 4.61182 16.9512 4.57275 17.0352 4.54572C17.1279 4.51556 17.2256 4.50034 17.3281 4.5C17.4307 4.49969 17.5283 4.51431 17.6211 4.54385C17.7041 4.57037 17.7842 4.60895 17.8603 4.65955C17.9414 4.71365 18.0107 4.77692 18.0693 4.84927C18.1377 4.93369 18.1904 5.03049 18.2285 5.13971L19.6885 9.36398C19.7314 9.48773 19.6885 9.62491 19.584 9.70291ZM3.9834 10.9975C3.8916 10.9299 3.76172 10.9698 3.72363 11.0769C3.63867 11.3203 3.57422 11.5672 3.53125 11.8179C3.48828 12.0671 3.4668 12.3242 3.4668 12.5807C3.4668 12.9143 3.50195 13.2401 3.57227 13.5582C3.64258 13.8763 3.74805 14.1865 3.88867 14.489C4.03027 14.7914 4.19922 15.072 4.39746 15.3307C4.59473 15.5894 4.82129 15.8262 5.07715 16.041L7.68945 18.2409C7.7959 18.3305 7.95019 18.3352 8.06152 18.2524L10.5869 16.3788C10.748 16.2589 10.748 16.0169 10.5869 15.897L3.9834 10.9975Z"/></svg>

<svg xmlns="http://www.w3.org/2000/svg" fill="none" viewBox="0 0 24 24" focusable="false"><path fill="#74767B" fill-rule="evenodd" d="M14.33 19.91c-.18.15-.36.28-.56.39-.18.1-.36.18-.54.25-.19.06-.39.12-.58.15a3.5 3.5 0 0 1-1.29 0 3.32 3.32 0 0 1-1.12-.4q-.3-.165-.57-.39l-.49-.42c-.15-.12-.14-.35.01-.47l2.63-1.94a.3.3 0 0 1 .36 0l2.63 1.95c.15.11.16.34.01.47zm1.61-1.66-2.53-1.88a.3.3 0 0 1 0-.48l6.6-4.89c.09-.07.23-.03.27.08.08.24.14.49.19.73a4.6 4.6 0 0 1-.05 1.74c-.07.32-.17.63-.31.93-.15.31-.32.59-.51.85-.2.26-.43.5-.69.71l-2.6 2.2a.3.3 0 0 1-.37.01m3.64-8.55-7.4 5.49a.3.3 0 0 1-.36 0l-7.4-5.48c-.1-.08-.14-.22-.1-.35l1.49-4.22a.952.952 0 0 1 .37-.48c.08-.05.15-.08.23-.11.09-.03.21-.05.31-.04.1 0 .2.01.29.04.08.03.17.07.24.12.08.06.15.12.21.2s.11.18.15.29l1.26 3.83c.02.02.11.12.14.14.02 0 .13.04.15.04h5.65c.03 0 .11-.03.16-.05.02-.02.12-.11.14-.14l1.32-3.84c.03-.11.09-.21.15-.29.06-.07.13-.14.21-.19q.12-.075.24-.12c.09-.03.19-.04.29-.04.11-.01.2.01.3.04.08.03.16.06.24.11.08.06.15.12.2.19.07.09.13.19.16.29l1.46 4.23c.05.12 0 .26-.1.34m-15.6 1.29a.167.167 0 0 0-.26.08c-.09.25-.15.49-.19.74-.05.25-.07.51-.07.77 0 .33.04.66.11.97.07.32.17.63.31.93.15.31.31.59.51.85.2.25.43.49.68.71l2.61 2.2c.11.09.27.09.38.01l2.52-1.88a.3.3 0 0 0 0-.48z"/></svg>
